X: 7635
T: Col. David Stewart Of Garth
R: reel
M: 4/4
K: Amajor
e2Ace2ce|dfed dBBd|e2Ace2ce|1 dfed cAA2:|dfed cAAd|
|:cega faec|dfed cBBd|1 cega faec|dfed cAAd:|
[2 ceae faec|dfed cAA4||

